svg/material-icons/disabled_visible/materialiconstwotone/20px.svg

<svg xmlns="http://www.w3.org/2000/svg" width="20" height="20" viewBox="0 0 20 20"><path d="M14.25 12.5c-1.67 0-3.21.78-4.04 2 .83 1.22 2.37 2 4.04 2s3.21-.78 4.04-2c-.83-1.22-2.37-2-4.04-2zm0 3.25a1.25 1.25 0 1 1 0-2.5 1.25 1.25 0 0 1 0 2.5z" opacity=".3"/><path d="M14.25 12.5c1.67 0 3.21.78 4.04 2-.83 1.22-2.37 2-4.04 2s-3.21-.78-4.04-2c.83-1.22 2.37-2 4.04-2zm0-1.5c-2.61 0-4.85 1.45-5.75 3.5.9 2.05 3.14 3.5 5.75 3.5s4.85-1.45 5.75-3.5c-.9-2.05-3.14-3.5-5.75-3.5zm0 4.75a1.25 1.25 0 1 1 0-2.5 1.25 1.25 0 0 1 0 2.5zm3.74-5.37c.01-.12.01-.25.01-.38 0-4.42-3.58-8-8-8s-8 3.58-8 8c0 4.24 3.3 7.71 7.47 7.98a7.148 7.148 0 0 1-1.83-1.93A6.498 6.498 0 0 1 3.5 10c0-1.52.53-2.92 1.41-4.03l4.85 4.85c.43-.29.9-.53 1.39-.73L5.97 4.91A6.47 6.47 0 0 1 10 3.5c3.51 0 6.39 2.81 6.5 6.3.52.15 1.02.34 1.49.58z"/></svg>

<svg xmlns="http://www.w3.org/2000/svg" enable-background="new 0 0 20 20" height="20" viewBox="0 0 20 20" width="20"><rect fill="none" height="20" width="20"/><path d="M14.25,12.5c-1.67,0-3.21,0.78-4.04,2c0.83,1.22,2.37,2,4.04,2s3.21-0.78,4.04-2 C17.46,13.28,15.92,12.5,14.25,12.5z M14.25,15.75c-0.69,0-1.25-0.56-1.25-1.25s0.56-1.25,1.25-1.25s1.25,0.56,1.25,1.25 S14.94,15.75,14.25,15.75z" opacity=".3"/><path d="M14.25,12.5c1.67,0,3.21,0.78,4.04,2c-0.83,1.22-2.37,2-4.04,2s-3.21-0.78-4.04-2C11.04,13.28,12.58,12.5,14.25,12.5z M14.25,11c-2.61,0-4.85,1.45-5.75,3.5c0.9,2.05,3.14,3.5,5.75,3.5s4.85-1.45,5.75-3.5C19.1,12.45,16.86,11,14.25,11z M14.25,15.75 c-0.69,0-1.25-0.56-1.25-1.25s0.56-1.25,1.25-1.25s1.25,0.56,1.25,1.25S14.94,15.75,14.25,15.75z M17.99,10.38 C18,10.26,18,10.13,18,10c0-4.42-3.58-8-8-8s-8,3.58-8,8c0,4.24,3.3,7.71,7.47,7.98c-0.73-0.53-1.35-1.18-1.83-1.93 C5.22,15.11,3.5,12.75,3.5,10c0-1.52,0.53-2.92,1.41-4.03l4.85,4.85c0.43-0.29,0.9-0.53,1.39-0.73L5.97,4.91 C7.08,4.03,8.48,3.5,10,3.5c3.51,0,6.39,2.81,6.5,6.3C17.02,9.95,17.52,10.14,17.99,10.38z"/></svg>
